icons/rescript-interface.svg

<svg xmlns="http://www.w3.org/2000/svg" viewBox="0 0 32 32">
  <path d="M16,21.86188A2.13812,2.13812,0,0,1,13.86194,24H12.13806A2.13812,2.13812,0,0,1,10,21.86188V10.13806A2.13806,2.13806,0,0,1,12.13806,8H16ZM21,14a3,3,0,1,1,3-3A3,3,0,0,1,21,14Z" style="fill: #ef5350"/>
  <path d="M24,4a4.00453,4.00453,0,0,1,4,4V24a4.00453,4.00453,0,0,1-4,4H8a4.00453,4.00453,0,0,1-4-4V8A4.00453,4.00453,0,0,1,8,4H24m0-2H8A6,6,0,0,0,2,8V24a6,6,0,0,0,6,6H24a6,6,0,0,0,6-6V8a6,6,0,0,0-6-6Z" style="fill: #ef5350"/>
</svg>

<svg xmlns="http://www.w3.org/2000/svg" viewBox="0 0 32 32"><path fill="#ef5350" d="M16 21.862A2.138 2.138 0 0 1 13.862 24h-1.724A2.138 2.138 0 0 1 10 21.862V10.138A2.138 2.138 0 0 1 12.138 8H16ZM21 14a3 3 0 1 1 3-3 3 3 0 0 1-3 3Z"/><path fill="#ef5350" d="M24 4a4.005 4.005 0 0 1 4 4v16a4.005 4.005 0 0 1-4 4H8a4.005 4.005 0 0 1-4-4V8a4.005 4.005 0 0 1 4-4h16m0-2H8a6 6 0 0 0-6 6v16a6 6 0 0 0 6 6h16a6 6 0 0 0 6-6V8a6 6 0 0 0-6-6Z"/></svg>
